**kern	**kern	**dynam
*part1	*part1	*part1
*staff2	*staff1	*
*I"Piano	*	*
*clefF4	*clefG2	*
*k[b-e-a-d-]	*k[b-e-a-d-]	*
=1	=1	=1
2.Dn 2.A- 2.c	([4f 4ff	.
.	4f]) 4cc	.
.	4a- 4cc	.
=	=	=
([2E- [2G 2Bn	4g 4bn	.
.	4g 4b	.
!	!LO:TX:b:i:t=dim.	!
4E-]) 4G] 4c	4g 4cc	.
=	=	=
([2F [2A- 2e-	4a- 4ee-	.
.	4a- 4cc	.
4F]) 4A-] 4dn	4a- 4cc 4ddn	.
=	=	=
([2.G 2.dn	4r	.
.	4g 4cc 4ddn	>
.	4g 4bn	.
=	=	=
*	*^	*
2G]) 2Bn	(4an	2f	.
.	4g)	.	]
!	!LO:TX:b:i:t=dolce  marcato	!	!
4G	4een	4f 4g	.
*	*v	*v	*
=	=	=
4C 4G	4en~ 4ddn	.
4C 4G	4e~ 4cc	.
4C 4G	4e~ 4bn	???
=	=	=
*	*^	*
4C 4G#X	(2ddn	4en	.
4C 4G#	.	4e	.
4C 4G#	4cc)	4e	.
*	*v	*v	*
=	=	=
*-	*-	*-
!!!system-decoration: {(s1,s2)}
